!!!OTL: LAUFET  IHR HIRTEN
!!!ARE: Europa, Mitteleuropa, Deutschland, Schlesien, Glatz
!!!SCT: E1946
!!!YEM: Copyright 1995, estate of Helmut Schaffrath.
**kern
*ICvox
*Ivox
*M3/4
*k[f#]
*G:
{4dd
=1
4b
4g
4dd
=2
4b
4g}
{4dd
=3
8dd
8cc
4b
4a
=4
4g
4r}
{4dd
=5
4b
4g
4dd
=6
4b
4g}
{4dd
=7
8dd
8cc
4b
4a
=8
4g
4r}
{8dd
8b
=9
4a
8a
8g
8f#
8g
=10
2a}
{8dd
8b
=11
4a
8a
8g
8f#
8g
=12
2a}
{4dd
=13
4dd
4b
4dd
=14
4dd
4b}
{4dd
=15
8dd
8cc
4b
4a
=16
4g
4r}
==
!!!AGN: geistlich, Fest - Lied, Weihnachten
!!!ONB: ESAC (Essen Associative Code) Database: ERK3
!!!AMT: simple triple
!!!AIN: vox
!!!EED: Helmut Schaffrath
!!!EEV: 1.0
*-
